!! 00000] TT[WS
!!!OTL: Guanggunr kuqi
!!!ARE: Asia, China, Shanxi Qinyuan
!! Ethnic Group: Han
!! WII, 148 (1)
!!!SCT: J0625
!!!YEM: Copyright 1995, estate of Helmut Schaffrath.
**kern
*ICvox
*Ivox
*M2/4
*k[f#]
*G:
{8ee
8gg
8ee
8dd
=1
8b
8b
8b
8dd
=2
8ee
8gg
8ee
8dd}
=3
{4b
4gg
=4
4ee
4dd
=5
8b
4a
8g
=6
2a}
=7
{4.dd
8b
=8
8ee
8gg
8ee
8dd
=9
8dd
8a
8dd
8b
=10
8a
8g
8e
8d}
=11
{4g
8a
8dd
=12
8b
8a
8g
8e
=13
8e
4d
8B
=14
2d}
==
!!!AGN: Xiaodiao. Qingge, Aisu
!!!ONB: ESAC (Essen Associative Code) Database: CHINA
!!!AMT: simple duple
!!!AIN: vox
!!!EED: Helmut Schaffrath
!!!EEV: 1.0
*-
